remix/Document/sticky-note-2-line.svg

<svg viewBox="0 0 24 24" fill="currentColor" xmlns="http://www.w3.org/2000/svg"><path d="M3.99826 21C3.44694 21 3 20.5551 3 20.0066V3.9934C3 3.44476 3.44495 3 3.9934 3H20.0066C20.5552 3 21 3.44749 21 3.9985V16L15.9968 21H3.99826ZM5 19H15.1688L19 15.1712V5H5V19Z"/></svg>

<svg viewBox="0 0 24 24" xmlns="http://www.w3.org/2000/svg"><path fill="none" d="M0 0h24v24H0Z"/><path d="M3.99 21v0c-.55 0-1-.45-1-1V3.98c0-.55.44-1 .99-1h16.01c.54 0 .99.44.99.99v12.001l-5.003 5H3.97Zm1-2h10.169l3.83-3.83V4.99h-14v14Z"/></svg>
